style/rule-45-time-16.svg

<svg height="170pt" viewBox="0 0 180 170" width="180pt" xmlns="http://www.w3.org/2000/svg"><path d="m0 0h180v170h-180z" fill="#fff"/><g fill="#800080" fill-rule="evenodd"><path d="m81.6875 84.609375 15.625-9.019531v18.039062zm0 0"/><path d="m112.933594 102.648438 15.621094-9.019532v18.039063zm0 0"/><path d="m112.933594 84.609375 15.621094-9.019531v18.039062zm0 0"/><path d="m112.933594 66.570312 15.621094-9.019531v18.039063zm0 0"/><path d="m81.6875 48.53125 15.625-9.015625v18.035156zm0 0"/><path d="m66.066406 57.550781 15.621094-9.019531v18.039062zm0 0"/><path d="m50.445312 66.570312 15.621094-9.019531v18.039063zm0 0"/><path d="m50.445312 102.648438 15.621094-9.019532v18.039063zm0 0"/><path d="m66.066406 111.667969 15.621094-9.019531v18.039062zm0 0"/><path d="m81.6875 120.6875 15.625-9.019531v18.039062zm0 0"/><path d="m128.554688 111.667969 15.621093-9.019531v18.039062zm0 0"/><path d="m128.554688 93.628906 15.621093-9.019531v18.039063zm0 0"/><path d="m128.554688 75.589844 15.621093-9.019532v18.039063zm0 0"/><path d="m128.554688 57.550781 15.621093-9.019531v18.039062zm0 0"/><path d="m81.6875 30.496094 15.625-9.019532v18.039063zm0 0"/><path d="m66.066406 39.515625 15.621094-9.019531v18.035156zm0 0"/><path d="m50.445312 48.53125 15.621094-9.015625v18.035156zm0 0"/><path d="m34.824219 57.550781 15.621093-9.019531v18.039062zm0 0"/><path d="m34.824219 111.667969 15.621093-9.019531v18.039062zm0 0"/><path d="m50.445312 120.6875 15.621094-9.019531v18.039062zm0 0"/><path d="m66.066406 129.707031 15.621094-9.019531v18.039062zm0 0"/><path d="m81.6875 138.726562 15.625-9.019531v18.039063zm0 0"/><path d="m128.554688 39.515625 15.621093-9.019531v18.035156zm0 0"/><path d="m112.933594 30.496094 15.621094-9.019532v18.039063zm0 0"/><path d="m97.3125 21.476562 15.621094-9.019531v18.039063zm0 0"/><path d="m19.203125 66.570312 15.621094-9.019531v18.039063zm0 0"/><path d="m19.203125 84.609375 15.621094-9.019531v18.039062zm0 0"/><path d="m19.203125 102.648438 15.621094-9.019532v18.039063zm0 0"/><path d="m97.3125 147.746094 15.621094-9.019532v18.039063zm0 0"/><path d="m112.933594 138.726562 15.621094-9.019531v18.039063zm0 0"/><path d="m128.554688 129.707031 15.621093-9.019531v18.039062zm0 0"/><path d="m159.796875 93.628906 15.625-9.019531v18.039063zm0 0"/><path d="m159.796875 75.589844 15.625-9.019532v18.039063zm0 0"/><path d="m128.554688 21.476562 15.621093-9.019531v18.039063zm0 0"/><path d="m112.933594 12.457031 15.621094-9.019531v18.039062zm0 0"/><path d="m50.445312 12.457031 15.621094-9.019531v18.039062zm0 0"/><path d="m34.824219 21.476562 15.621093-9.019531v18.039063zm0 0"/><path d="m3.578125 75.589844 15.625-9.019532v18.039063zm0 0"/><path d="m3.578125 93.628906 15.625-9.019531v18.039063zm0 0"/><path d="m34.824219 147.746094 15.621093-9.019532v18.039063zm0 0"/><path d="m50.445312 156.765625 15.621094-9.019531v18.039062zm0 0"/><path d="m112.933594 156.765625 15.621094-9.019531v18.039062zm0 0"/><path d="m128.554688 147.746094 15.621093-9.019532v18.039063zm0 0"/><path d="m112.933594 84.609375-15.621094-9.019531v18.039062zm0 0"/><path d="m97.3125 75.589844-15.625-9.019532v18.039063zm0 0"/><path d="m97.3125 93.628906-15.625-9.019531v18.039063zm0 0"/><path d="m128.554688 93.628906-15.621094-9.019531v18.039063zm0 0"/><path d="m128.554688 75.589844-15.621094-9.019532v18.039063zm0 0"/><path d="m97.3125 57.550781-15.625-9.019531v18.039062zm0 0"/><path d="m81.6875 66.570312-15.621094-9.019531v18.039063zm0 0"/><path d="m81.6875 102.648438-15.621094-9.019532v18.039063zm0 0"/><path d="m97.3125 111.667969-15.625-9.019531v18.039062zm0 0"/><path d="m144.175781 84.609375-15.621093-9.019531v18.039062zm0 0"/><path d="m81.6875 48.53125-15.621094-9.015625v18.035156zm0 0"/><path d="m81.6875 120.6875-15.621094-9.019531v18.039062zm0 0"/><path d="m159.796875 111.667969-15.621094-9.019531v18.039062zm0 0"/><path d="m159.796875 93.628906-15.621094-9.019531v18.039063zm0 0"/><path d="m159.796875 75.589844-15.621094-9.019532v18.039063zm0 0"/><path d="m159.796875 57.550781-15.621094-9.019531v18.039062zm0 0"/><path d="m144.175781 48.53125-15.621093-9.015625v18.035156zm0 0"/><path d="m112.933594 30.496094-15.621094-9.019532v18.039063zm0 0"/><path d="m97.3125 21.476562-15.625-9.019531v18.039063zm0 0"/><path d="m81.6875 30.496094-15.621094-9.019532v18.039063zm0 0"/><path d="m66.066406 39.515625-15.621094-9.019531v18.035156zm0 0"/><path d="m50.445312 48.53125-15.621093-9.015625v18.035156zm0 0"/><path d="m50.445312 66.570312-15.621093-9.019531v18.039063zm0 0"/><path d="m50.445312 102.648438-15.621093-9.019532v18.039063zm0 0"/><path d="m50.445312 120.6875-15.621093-9.019531v18.039062zm0 0"/><path d="m66.066406 129.707031-15.621094-9.019531v18.039062zm0 0"/><path d="m81.6875 138.726562-15.621094-9.019531v18.039063zm0 0"/><path d="m97.3125 147.746094-15.625-9.019532v18.039063zm0 0"/><path d="m112.933594 138.726562-15.621094-9.019531v18.039063zm0 0"/><path d="m144.175781 120.6875-15.621093-9.019531v18.039062zm0 0"/><path d="m175.421875 102.648438-15.625-9.019532v18.039063zm0 0"/><path d="m175.421875 66.570312-15.625-9.019531v18.039063zm0 0"/><path d="m144.175781 30.496094-15.621093-9.019532v18.039063zm0 0"/><path d="m128.554688 21.476562-15.621094-9.019531v18.039063zm0 0"/><path d="m81.6875 12.457031-15.621094-9.019531v18.039062zm0 0"/><path d="m50.445312 30.496094-15.621093-9.019532v18.039063zm0 0"/><path d="m34.824219 75.589844-15.621094-9.019532v18.039063zm0 0"/><path d="m34.824219 93.628906-15.621094-9.019531v18.039063zm0 0"/><path d="m50.445312 138.726562-15.621093-9.019531v18.039063zm0 0"/><path d="m81.6875 156.765625-15.621094-9.019531v18.039062zm0 0"/><path d="m128.554688 147.746094-15.621094-9.019532v18.039063zm0 0"/><path d="m144.175781 138.726562-15.621093-9.019531v18.039063zm0 0"/><path d="m144.175781 12.457031-15.621093-9.019531v18.039062zm0 0"/><path d="m19.203125 84.609375-15.625-9.019531v18.039062zm0 0"/><path d="m144.175781 156.765625-15.621093-9.019531v18.039062zm0 0"/></g></svg>

<?xml version="1.0" encoding="UTF-8"?>
<svg xmlns="http://www.w3.org/2000/svg" xmlns:xlink="http://www.w3.org/1999/xlink" width="180pt" height="170pt" viewBox="0 0 180 170" version="1.1">
<g id="surface26">
<rect x="0" y="0" width="180" height="170" style="fill:rgb(100%,100%,100%);fill-opacity:1;stroke:none;"/>
<path style=" stroke:none;fill-rule:evenodd;fill:rgb(50.000763%,0%,50.000763%);fill-opacity:1;" d="M 81.6875 84.609375 L 97.3125 75.589844 L 97.3125 93.628906 Z M 81.6875 84.609375 "/>
<path style=" stroke:none;fill-rule:evenodd;fill:rgb(50.000763%,0%,50.000763%);fill-opacity:1;" d="M 112.933594 102.648438 L 128.554688 93.628906 L 128.554688 111.667969 Z M 112.933594 102.648438 "/>
<path style=" stroke:none;fill-rule:evenodd;fill:rgb(50.000763%,0%,50.000763%);fill-opacity:1;" d="M 112.933594 84.609375 L 128.554688 75.589844 L 128.554688 93.628906 Z M 112.933594 84.609375 "/>
<path style=" stroke:none;fill-rule:evenodd;fill:rgb(50.000763%,0%,50.000763%);fill-opacity:1;" d="M 112.933594 66.570312 L 128.554688 57.550781 L 128.554688 75.589844 Z M 112.933594 66.570312 "/>
<path style=" stroke:none;fill-rule:evenodd;fill:rgb(50.000763%,0%,50.000763%);fill-opacity:1;" d="M 81.6875 48.53125 L 97.3125 39.515625 L 97.3125 57.550781 Z M 81.6875 48.53125 "/>
<path style=" stroke:none;fill-rule:evenodd;fill:rgb(50.000763%,0%,50.000763%);fill-opacity:1;" d="M 66.066406 57.550781 L 81.6875 48.53125 L 81.6875 66.570312 Z M 66.066406 57.550781 "/>
<path style=" stroke:none;fill-rule:evenodd;fill:rgb(50.000763%,0%,50.000763%);fill-opacity:1;" d="M 50.445312 66.570312 L 66.066406 57.550781 L 66.066406 75.589844 Z M 50.445312 66.570312 "/>
<path style=" stroke:none;fill-rule:evenodd;fill:rgb(50.000763%,0%,50.000763%);fill-opacity:1;" d="M 50.445312 102.648438 L 66.066406 93.628906 L 66.066406 111.667969 Z M 50.445312 102.648438 "/>
<path style=" stroke:none;fill-rule:evenodd;fill:rgb(50.000763%,0%,50.000763%);fill-opacity:1;" d="M 66.066406 111.667969 L 81.6875 102.648438 L 81.6875 120.6875 Z M 66.066406 111.667969 "/>
<path style=" stroke:none;fill-rule:evenodd;fill:rgb(50.000763%,0%,50.000763%);fill-opacity:1;" d="M 81.6875 120.6875 L 97.3125 111.667969 L 97.3125 129.707031 Z M 81.6875 120.6875 "/>
<path style=" stroke:none;fill-rule:evenodd;fill:rgb(50.000763%,0%,50.000763%);fill-opacity:1;" d="M 128.554688 111.667969 L 144.175781 102.648438 L 144.175781 120.6875 Z M 128.554688 111.667969 "/>
<path style=" stroke:none;fill-rule:evenodd;fill:rgb(50.000763%,0%,50.000763%);fill-opacity:1;" d="M 128.554688 93.628906 L 144.175781 84.609375 L 144.175781 102.648438 Z M 128.554688 93.628906 "/>
<path style=" stroke:none;fill-rule:evenodd;fill:rgb(50.000763%,0%,50.000763%);fill-opacity:1;" d="M 128.554688 75.589844 L 144.175781 66.570312 L 144.175781 84.609375 Z M 128.554688 75.589844 "/>
<path style=" stroke:none;fill-rule:evenodd;fill:rgb(50.000763%,0%,50.000763%);fill-opacity:1;" d="M 128.554688 57.550781 L 144.175781 48.53125 L 144.175781 66.570312 Z M 128.554688 57.550781 "/>
<path style=" stroke:none;fill-rule:evenodd;fill:rgb(50.000763%,0%,50.000763%);fill-opacity:1;" d="M 81.6875 30.496094 L 97.3125 21.476562 L 97.3125 39.515625 Z M 81.6875 30.496094 "/>
<path style=" stroke:none;fill-rule:evenodd;fill:rgb(50.000763%,0%,50.000763%);fill-opacity:1;" d="M 66.066406 39.515625 L 81.6875 30.496094 L 81.6875 48.53125 Z M 66.066406 39.515625 "/>
<path style=" stroke:none;fill-rule:evenodd;fill:rgb(50.000763%,0%,50.000763%);fill-opacity:1;" d="M 50.445312 48.53125 L 66.066406 39.515625 L 66.066406 57.550781 Z M 50.445312 48.53125 "/>
<path style=" stroke:none;fill-rule:evenodd;fill:rgb(50.000763%,0%,50.000763%);fill-opacity:1;" d="M 34.824219 57.550781 L 50.445312 48.53125 L 50.445312 66.570312 Z M 34.824219 57.550781 "/>
<path style=" stroke:none;fill-rule:evenodd;fill:rgb(50.000763%,0%,50.000763%);fill-opacity:1;" d="M 34.824219 111.667969 L 50.445312 102.648438 L 50.445312 120.6875 Z M 34.824219 111.667969 "/>
<path style=" stroke:none;fill-rule:evenodd;fill:rgb(50.000763%,0%,50.000763%);fill-opacity:1;" d="M 50.445312 120.6875 L 66.066406 111.667969 L 66.066406 129.707031 Z M 50.445312 120.6875 "/>
<path style=" stroke:none;fill-rule:evenodd;fill:rgb(50.000763%,0%,50.000763%);fill-opacity:1;" d="M 66.066406 129.707031 L 81.6875 120.6875 L 81.6875 138.726562 Z M 66.066406 129.707031 "/>
<path style=" stroke:none;fill-rule:evenodd;fill:rgb(50.000763%,0%,50.000763%);fill-opacity:1;" d="M 81.6875 138.726562 L 97.3125 129.707031 L 97.3125 147.746094 Z M 81.6875 138.726562 "/>
<path style=" stroke:none;fill-rule:evenodd;fill:rgb(50.000763%,0%,50.000763%);fill-opacity:1;" d="M 128.554688 39.515625 L 144.175781 30.496094 L 144.175781 48.53125 Z M 128.554688 39.515625 "/>
<path style=" stroke:none;fill-rule:evenodd;fill:rgb(50.000763%,0%,50.000763%);fill-opacity:1;" d="M 112.933594 30.496094 L 128.554688 21.476562 L 128.554688 39.515625 Z M 112.933594 30.496094 "/>
<path style=" stroke:none;fill-rule:evenodd;fill:rgb(50.000763%,0%,50.000763%);fill-opacity:1;" d="M 97.3125 21.476562 L 112.933594 12.457031 L 112.933594 30.496094 Z M 97.3125 21.476562 "/>
<path style=" stroke:none;fill-rule:evenodd;fill:rgb(50.000763%,0%,50.000763%);fill-opacity:1;" d="M 19.203125 66.570312 L 34.824219 57.550781 L 34.824219 75.589844 Z M 19.203125 66.570312 "/>
<path style=" stroke:none;fill-rule:evenodd;fill:rgb(50.000763%,0%,50.000763%);fill-opacity:1;" d="M 19.203125 84.609375 L 34.824219 75.589844 L 34.824219 93.628906 Z M 19.203125 84.609375 "/>
<path style=" stroke:none;fill-rule:evenodd;fill:rgb(50.000763%,0%,50.000763%);fill-opacity:1;" d="M 19.203125 102.648438 L 34.824219 93.628906 L 34.824219 111.667969 Z M 19.203125 102.648438 "/>
<path style=" stroke:none;fill-rule:evenodd;fill:rgb(50.000763%,0%,50.000763%);fill-opacity:1;" d="M 97.3125 147.746094 L 112.933594 138.726562 L 112.933594 156.765625 Z M 97.3125 147.746094 "/>
<path style=" stroke:none;fill-rule:evenodd;fill:rgb(50.000763%,0%,50.000763%);fill-opacity:1;" d="M 112.933594 138.726562 L 128.554688 129.707031 L 128.554688 147.746094 Z M 112.933594 138.726562 "/>
<path style=" stroke:none;fill-rule:evenodd;fill:rgb(50.000763%,0%,50.000763%);fill-opacity:1;" d="M 128.554688 129.707031 L 144.175781 120.6875 L 144.175781 138.726562 Z M 128.554688 129.707031 "/>
<path style=" stroke:none;fill-rule:evenodd;fill:rgb(50.000763%,0%,50.000763%);fill-opacity:1;" d="M 159.796875 93.628906 L 175.421875 84.609375 L 175.421875 102.648438 Z M 159.796875 93.628906 "/>
<path style=" stroke:none;fill-rule:evenodd;fill:rgb(50.000763%,0%,50.000763%);fill-opacity:1;" d="M 159.796875 75.589844 L 175.421875 66.570312 L 175.421875 84.609375 Z M 159.796875 75.589844 "/>
<path style=" stroke:none;fill-rule:evenodd;fill:rgb(50.000763%,0%,50.000763%);fill-opacity:1;" d="M 128.554688 21.476562 L 144.175781 12.457031 L 144.175781 30.496094 Z M 128.554688 21.476562 "/>
<path style=" stroke:none;fill-rule:evenodd;fill:rgb(50.000763%,0%,50.000763%);fill-opacity:1;" d="M 112.933594 12.457031 L 128.554688 3.4375 L 128.554688 21.476562 Z M 112.933594 12.457031 "/>
<path style=" stroke:none;fill-rule:evenodd;fill:rgb(50.000763%,0%,50.000763%);fill-opacity:1;" d="M 50.445312 12.457031 L 66.066406 3.4375 L 66.066406 21.476562 Z M 50.445312 12.457031 "/>
<path style=" stroke:none;fill-rule:evenodd;fill:rgb(50.000763%,0%,50.000763%);fill-opacity:1;" d="M 34.824219 21.476562 L 50.445312 12.457031 L 50.445312 30.496094 Z M 34.824219 21.476562 "/>
<path style=" stroke:none;fill-rule:evenodd;fill:rgb(50.000763%,0%,50.000763%);fill-opacity:1;" d="M 3.578125 75.589844 L 19.203125 66.570312 L 19.203125 84.609375 Z M 3.578125 75.589844 "/>
<path style=" stroke:none;fill-rule:evenodd;fill:rgb(50.000763%,0%,50.000763%);fill-opacity:1;" d="M 3.578125 93.628906 L 19.203125 84.609375 L 19.203125 102.648438 Z M 3.578125 93.628906 "/>
<path style=" stroke:none;fill-rule:evenodd;fill:rgb(50.000763%,0%,50.000763%);fill-opacity:1;" d="M 34.824219 147.746094 L 50.445312 138.726562 L 50.445312 156.765625 Z M 34.824219 147.746094 "/>
<path style=" stroke:none;fill-rule:evenodd;fill:rgb(50.000763%,0%,50.000763%);fill-opacity:1;" d="M 50.445312 156.765625 L 66.066406 147.746094 L 66.066406 165.785156 Z M 50.445312 156.765625 "/>
<path style=" stroke:none;fill-rule:evenodd;fill:rgb(50.000763%,0%,50.000763%);fill-opacity:1;" d="M 112.933594 156.765625 L 128.554688 147.746094 L 128.554688 165.785156 Z M 112.933594 156.765625 "/>
<path style=" stroke:none;fill-rule:evenodd;fill:rgb(50.000763%,0%,50.000763%);fill-opacity:1;" d="M 128.554688 147.746094 L 144.175781 138.726562 L 144.175781 156.765625 Z M 128.554688 147.746094 "/>
<path style=" stroke:none;fill-rule:evenodd;fill:rgb(50.000763%,0%,50.000763%);fill-opacity:1;" d="M 112.933594 84.609375 L 97.3125 75.589844 L 97.3125 93.628906 Z M 112.933594 84.609375 "/>
<path style=" stroke:none;fill-rule:evenodd;fill:rgb(50.000763%,0%,50.000763%);fill-opacity:1;" d="M 97.3125 75.589844 L 81.6875 66.570312 L 81.6875 84.609375 Z M 97.3125 75.589844 "/>
<path style=" stroke:none;fill-rule:evenodd;fill:rgb(50.000763%,0%,50.000763%);fill-opacity:1;" d="M 97.3125 93.628906 L 81.6875 84.609375 L 81.6875 102.648438 Z M 97.3125 93.628906 "/>
<path style=" stroke:none;fill-rule:evenodd;fill:rgb(50.000763%,0%,50.000763%);fill-opacity:1;" d="M 128.554688 93.628906 L 112.933594 84.609375 L 112.933594 102.648438 Z M 128.554688 93.628906 "/>
<path style=" stroke:none;fill-rule:evenodd;fill:rgb(50.000763%,0%,50.000763%);fill-opacity:1;" d="M 128.554688 75.589844 L 112.933594 66.570312 L 112.933594 84.609375 Z M 128.554688 75.589844 "/>
<path style=" stroke:none;fill-rule:evenodd;fill:rgb(50.000763%,0%,50.000763%);fill-opacity:1;" d="M 97.3125 57.550781 L 81.6875 48.53125 L 81.6875 66.570312 Z M 97.3125 57.550781 "/>
<path style=" stroke:none;fill-rule:evenodd;fill:rgb(50.000763%,0%,50.000763%);fill-opacity:1;" d="M 81.6875 66.570312 L 66.066406 57.550781 L 66.066406 75.589844 Z M 81.6875 66.570312 "/>
<path style=" stroke:none;fill-rule:evenodd;fill:rgb(50.000763%,0%,50.000763%);fill-opacity:1;" d="M 81.6875 102.648438 L 66.066406 93.628906 L 66.066406 111.667969 Z M 81.6875 102.648438 "/>
<path style=" stroke:none;fill-rule:evenodd;fill:rgb(50.000763%,0%,50.000763%);fill-opacity:1;" d="M 97.3125 111.667969 L 81.6875 102.648438 L 81.6875 120.6875 Z M 97.3125 111.667969 "/>
<path style=" stroke:none;fill-rule:evenodd;fill:rgb(50.000763%,0%,50.000763%);fill-opacity:1;" d="M 144.175781 84.609375 L 128.554688 75.589844 L 128.554688 93.628906 Z M 144.175781 84.609375 "/>
<path style=" stroke:none;fill-rule:evenodd;fill:rgb(50.000763%,0%,50.000763%);fill-opacity:1;" d="M 81.6875 48.53125 L 66.066406 39.515625 L 66.066406 57.550781 Z M 81.6875 48.53125 "/>
<path style=" stroke:none;fill-rule:evenodd;fill:rgb(50.000763%,0%,50.000763%);fill-opacity:1;" d="M 81.6875 120.6875 L 66.066406 111.667969 L 66.066406 129.707031 Z M 81.6875 120.6875 "/>
<path style=" stroke:none;fill-rule:evenodd;fill:rgb(50.000763%,0%,50.000763%);fill-opacity:1;" d="M 159.796875 111.667969 L 144.175781 102.648438 L 144.175781 120.6875 Z M 159.796875 111.667969 "/>
<path style=" stroke:none;fill-rule:evenodd;fill:rgb(50.000763%,0%,50.000763%);fill-opacity:1;" d="M 159.796875 93.628906 L 144.175781 84.609375 L 144.175781 102.648438 Z M 159.796875 93.628906 "/>
<path style=" stroke:none;fill-rule:evenodd;fill:rgb(50.000763%,0%,50.000763%);fill-opacity:1;" d="M 159.796875 75.589844 L 144.175781 66.570312 L 144.175781 84.609375 Z M 159.796875 75.589844 "/>
<path style=" stroke:none;fill-rule:evenodd;fill:rgb(50.000763%,0%,50.000763%);fill-opacity:1;" d="M 159.796875 57.550781 L 144.175781 48.53125 L 144.175781 66.570312 Z M 159.796875 57.550781 "/>
<path style=" stroke:none;fill-rule:evenodd;fill:rgb(50.000763%,0%,50.000763%);fill-opacity:1;" d="M 144.175781 48.53125 L 128.554688 39.515625 L 128.554688 57.550781 Z M 144.175781 48.53125 "/>
<path style=" stroke:none;fill-rule:evenodd;fill:rgb(50.000763%,0%,50.000763%);fill-opacity:1;" d="M 112.933594 30.496094 L 97.3125 21.476562 L 97.3125 39.515625 Z M 112.933594 30.496094 "/>
<path style=" stroke:none;fill-rule:evenodd;fill:rgb(50.000763%,0%,50.000763%);fill-opacity:1;" d="M 97.3125 21.476562 L 81.6875 12.457031 L 81.6875 30.496094 Z M 97.3125 21.476562 "/>
<path style=" stroke:none;fill-rule:evenodd;fill:rgb(50.000763%,0%,50.000763%);fill-opacity:1;" d="M 81.6875 30.496094 L 66.066406 21.476562 L 66.066406 39.515625 Z M 81.6875 30.496094 "/>
<path style=" stroke:none;fill-rule:evenodd;fill:rgb(50.000763%,0%,50.000763%);fill-opacity:1;" d="M 66.066406 39.515625 L 50.445312 30.496094 L 50.445312 48.53125 Z M 66.066406 39.515625 "/>
<path style=" stroke:none;fill-rule:evenodd;fill:rgb(50.000763%,0%,50.000763%);fill-opacity:1;" d="M 50.445312 48.53125 L 34.824219 39.515625 L 34.824219 57.550781 Z M 50.445312 48.53125 "/>
<path style=" stroke:none;fill-rule:evenodd;fill:rgb(50.000763%,0%,50.000763%);fill-opacity:1;" d="M 50.445312 66.570312 L 34.824219 57.550781 L 34.824219 75.589844 Z M 50.445312 66.570312 "/>
<path style=" stroke:none;fill-rule:evenodd;fill:rgb(50.000763%,0%,50.000763%);fill-opacity:1;" d="M 50.445312 102.648438 L 34.824219 93.628906 L 34.824219 111.667969 Z M 50.445312 102.648438 "/>
<path style=" stroke:none;fill-rule:evenodd;fill:rgb(50.000763%,0%,50.000763%);fill-opacity:1;" d="M 50.445312 120.6875 L 34.824219 111.667969 L 34.824219 129.707031 Z M 50.445312 120.6875 "/>
<path style=" stroke:none;fill-rule:evenodd;fill:rgb(50.000763%,0%,50.000763%);fill-opacity:1;" d="M 66.066406 129.707031 L 50.445312 120.6875 L 50.445312 138.726562 Z M 66.066406 129.707031 "/>
<path style=" stroke:none;fill-rule:evenodd;fill:rgb(50.000763%,0%,50.000763%);fill-opacity:1;" d="M 81.6875 138.726562 L 66.066406 129.707031 L 66.066406 147.746094 Z M 81.6875 138.726562 "/>
<path style=" stroke:none;fill-rule:evenodd;fill:rgb(50.000763%,0%,50.000763%);fill-opacity:1;" d="M 97.3125 147.746094 L 81.6875 138.726562 L 81.6875 156.765625 Z M 97.3125 147.746094 "/>
<path style=" stroke:none;fill-rule:evenodd;fill:rgb(50.000763%,0%,50.000763%);fill-opacity:1;" d="M 112.933594 138.726562 L 97.3125 129.707031 L 97.3125 147.746094 Z M 112.933594 138.726562 "/>
<path style=" stroke:none;fill-rule:evenodd;fill:rgb(50.000763%,0%,50.000763%);fill-opacity:1;" d="M 144.175781 120.6875 L 128.554688 111.667969 L 128.554688 129.707031 Z M 144.175781 120.6875 "/>
<path style=" stroke:none;fill-rule:evenodd;fill:rgb(50.000763%,0%,50.000763%);fill-opacity:1;" d="M 175.421875 102.648438 L 159.796875 93.628906 L 159.796875 111.667969 Z M 175.421875 102.648438 "/>
<path style=" stroke:none;fill-rule:evenodd;fill:rgb(50.000763%,0%,50.000763%);fill-opacity:1;" d="M 175.421875 66.570312 L 159.796875 57.550781 L 159.796875 75.589844 Z M 175.421875 66.570312 "/>
<path style=" stroke:none;fill-rule:evenodd;fill:rgb(50.000763%,0%,50.000763%);fill-opacity:1;" d="M 144.175781 30.496094 L 128.554688 21.476562 L 128.554688 39.515625 Z M 144.175781 30.496094 "/>
<path style=" stroke:none;fill-rule:evenodd;fill:rgb(50.000763%,0%,50.000763%);fill-opacity:1;" d="M 128.554688 21.476562 L 112.933594 12.457031 L 112.933594 30.496094 Z M 128.554688 21.476562 "/>
<path style=" stroke:none;fill-rule:evenodd;fill:rgb(50.000763%,0%,50.000763%);fill-opacity:1;" d="M 81.6875 12.457031 L 66.066406 3.4375 L 66.066406 21.476562 Z M 81.6875 12.457031 "/>
<path style=" stroke:none;fill-rule:evenodd;fill:rgb(50.000763%,0%,50.000763%);fill-opacity:1;" d="M 50.445312 30.496094 L 34.824219 21.476562 L 34.824219 39.515625 Z M 50.445312 30.496094 "/>
<path style=" stroke:none;fill-rule:evenodd;fill:rgb(50.000763%,0%,50.000763%);fill-opacity:1;" d="M 34.824219 75.589844 L 19.203125 66.570312 L 19.203125 84.609375 Z M 34.824219 75.589844 "/>
<path style=" stroke:none;fill-rule:evenodd;fill:rgb(50.000763%,0%,50.000763%);fill-opacity:1;" d="M 34.824219 93.628906 L 19.203125 84.609375 L 19.203125 102.648438 Z M 34.824219 93.628906 "/>
<path style=" stroke:none;fill-rule:evenodd;fill:rgb(50.000763%,0%,50.000763%);fill-opacity:1;" d="M 50.445312 138.726562 L 34.824219 129.707031 L 34.824219 147.746094 Z M 50.445312 138.726562 "/>
<path style=" stroke:none;fill-rule:evenodd;fill:rgb(50.000763%,0%,50.000763%);fill-opacity:1;" d="M 81.6875 156.765625 L 66.066406 147.746094 L 66.066406 165.785156 Z M 81.6875 156.765625 "/>
<path style=" stroke:none;fill-rule:evenodd;fill:rgb(50.000763%,0%,50.000763%);fill-opacity:1;" d="M 128.554688 147.746094 L 112.933594 138.726562 L 112.933594 156.765625 Z M 128.554688 147.746094 "/>
<path style=" stroke:none;fill-rule:evenodd;fill:rgb(50.000763%,0%,50.000763%);fill-opacity:1;" d="M 144.175781 138.726562 L 128.554688 129.707031 L 128.554688 147.746094 Z M 144.175781 138.726562 "/>
<path style=" stroke:none;fill-rule:evenodd;fill:rgb(50.000763%,0%,50.000763%);fill-opacity:1;" d="M 144.175781 12.457031 L 128.554688 3.4375 L 128.554688 21.476562 Z M 144.175781 12.457031 "/>
<path style=" stroke:none;fill-rule:evenodd;fill:rgb(50.000763%,0%,50.000763%);fill-opacity:1;" d="M 19.203125 84.609375 L 3.578125 75.589844 L 3.578125 93.628906 Z M 19.203125 84.609375 "/>
<path style=" stroke:none;fill-rule:evenodd;fill:rgb(50.000763%,0%,50.000763%);fill-opacity:1;" d="M 144.175781 156.765625 L 128.554688 147.746094 L 128.554688 165.785156 Z M 144.175781 156.765625 "/>
</g>
</svg>
